!!!!SEGMENT: pl-sa--552-a-ix-32--036_anonim--rondeau.krn
!!!cenid: 18xx:547
!!!COM: Anonim
!!!COM-rismID: pe30004985
!!!CDT:
!!!CNT:
!!!OTL: Rondeau
!!!PDT:
!!!AGN: Secular; Rondo
!!!SMS-siglum: PL-SA
!!!SMS-shelfmark: 552/A IX 32
!!!SMS-shelfwork: 036 W
!!!SMS-variant:
!!!SMS-altvar:
!!!NIFC-rismSourceID: 1001069578
!!!NIFC-rismChildID: 1001069578
!!!NIFC-islandoraID: none
!!!URL-pdf-islandora:
!!!URL-scan: https://bc.bdsandomierz.pl/dlibra/publication/1308/edition/1276/content @EN{Scan in the Sandomierz Diocese Digital Library} @PL{Skany w portalu Cyfrowa Biblioteka Diecezjalna w Sandomierzu}
!!!ONB-nifc: Str. 19 – str. 20 (s. 5)
!!!AIN: 2 piano
!!!key:
**kern	**kern	**dynam
*part2	*part1	*part1
*staff2	*staff1	*
*Ipiano	*Ipiano	*
*I"Piano	*I"Piano	*
*clefG2	*clefG2	*
*k[]	*k[]	*
*C:	*C:	*
*M2/4	*M2/4	*
!	!LO:TX:a:t=[W. A. Mozart]:problem=dopisane ołówkiem po prawej stronie	!
!	!LO:TX:a:i:t=Rondo Allegro	!
!LO:TX:a:t=P::problem=omyłkowo wpisany klucz F3 zamiast F4&colon; global	!	!
8r	16ee\LL	.
.	16ff\JJ	.
=1	=1	=1
!LO:N:vis=8.	!	!
8g 8e 8c/|	8.gg\L	.
8ryy	.	.
.	16gg\Jk	.
4r	16ff#X\LL	.
.	16gg\	.
.	16aa\	.
.	16gg\JJ	.
=2	=2	=2
8g 8e 8c/|	8.ee\L	.
8ryy	.	.
.	16ee\Jk	.
4r	16dd#X\LL	.
.	16ee\	.
.	16ff\	.
.	16ee\JJ	.
=3	=3	=3
8r	8.cc\L	.
8g 8e 8c/|	.	.
.	16cc\Jk	.
4r	16dd\LL	.
.	16cc\	.
.	16b\	.
.	16cc\JJ	.
=4	=4	=4
4g 4f 4B/	4cc#X\	.
!LO:N:vis=4	!	!
8g 8f 8B/	8dd\L	.
8r	16ee\L	.
.	16ff\JJ	.
=5	=5	=5
8g 8d 8B/|	8.ff\L	.
8ryy	.	.
.	16ff\Jk	.
4r	16ee\LL	.
.	16ff\	.
.	16gg\	.
.	16ff\JJ	.
=6	=6	=6
8gL 8f 8B/	8.dd\L	.
8gJ 8f 8B/	.	.
.	16dd\Jk	.
4r	16cc#X\LL	.
.	16dd\	.
.	16ee\	.
.	16dd\JJ	.
*clefF4	*	*
=7	=7	=7
8r	8b\L	.
8fL 8d 8G\	8gg 8b\	.
8f 8d 8G\	8gg 8b\	.
8fJ 8d 8G\	8ggJ 8b\	.
=8	=8	=8
4f 4d 4G\	4gg 4b\	.
8e 8c 8G\	8cc\L	.
8r	16ee\L	.
.	16ff\JJ	.
=9	=9	=9
16C\LL	8.gg\L	.
16G\	.	.
16E\	.	.
16G\JJ	16gg\Jk	.
*rep	*	*
16C\LL	16ff#X\LL	.
16G\	16gg\	.
16E\	16aa\	.
16G\JJ	16gg\JJ	.
*Xrep	*	*
=10	=10	=10
*rep	*	*
16C\LL	8.ee\L	.
16G\	.	.
16E\	.	.
16G\JJ	16ee\Jk	.
*Xrep	*	*
*rep	*	*
16C\LL	16dd#X\LL	.
16G\	16ee\	.
16E\	16ff\	.
16G\JJ	16ee\JJ	.
*Xrep	*	*
!!LO:LB:g=original
=11	=11	=11
*rep	*	*
16C\LL	8.cc\L	.
16G\	.	.
16E\	.	.
16G\JJ	16cc\Jk	.
*Xrep	*	*
*rep	*	*
16C\LL	16dd\LL	.
16G\	16cc\	.
16E\	16b\	.
16G\JJ	16cc\JJ	.
*Xrep	*	*
=12	=12	=12
16BB\LL	4cc#X\	.
16G\	.	.
16F\	.	.
16G\JJ	.	.
*rep	*	*
16BB\LL	8dd\L	.
16G\	.	.
16F\	16dd\L	.
16G\JJ	16ee\JJ	.
*Xrep	*	*
=13	=13	=13
16BB\LL	8.ff\L	.
16G\	.	.
16D\	.	.
16G\JJ	16ff\Jk	.
*rep	*	*
16BB\LL	16ee\LL	.
16G\	16ff\	.
16D\	16gg\	.
16G\JJ	16ff\JJ	.
*Xrep	*	*
=14	=14	=14
16BB\LL	8.dd\L	.
16G\	.	.
16F\	.	.
16G\JJ	16dd\Jk	.
*rep	*	*
16BB\LL	16cc#X\LL	.
16G\	16dd\	.
16F\	16ee\	.
16G\JJ	16dd\JJ	.
*Xrep	*	*
=15	=15	=15
8r	8b\L	.
8fL 8d 8G\	8gg 8b\	.
8f 8d 8G\	8gg 8b\	.
8fJ 8d 8G\	8ggJ 8b\	.
=16	=16	=16
16C\LL	4cc\	.
16E\	.	.
16G\	.	.
16c\JJ	.	.
8C/	8r	.
8r	16eee\LL	.
.	16ddd\JJ	.
=17	=17	=17
2r	16ccc\LL	.
.	16bb\	.
.	16aa\	.
.	16gg\JJ	.
.	16ff#X\LL	.
.	16gg\	.
.	16aa\	.
.	16gg\JJ	.
=18	=18	=18
2r	16ffn\LL	.
.	16ee\	.
.	16dd\	.
.	16cc\JJ	.
.	16b\LL	.
.	16cc\	.
.	16dd\	.
.	16ee\JJ	.
=19	=19	=19
8r	8ff\L	.
8dL 8G\	8ff 8b\	.
8d 8G\	8ff 8b\	.
8dJ 8G\	8ffJ 8b\	.
=20	=20	=20
4d 4G\	4ff 4b\	.
8e 8c\	8eeL 8cc\	.
8r	16ccc\L	.
.	16bb\JJ	.
=21	=21	=21
2r	16aa\LL	.
.	16gg\	.
.	16ff\	.
.	16ee\JJ	.
.	16dd#X\LL	.
.	16ee\	.
.	16ff\	.
.	16ee\JJ	.
!!LO:LB:g=original
=22	=22	=22
2r	16ddn\LL	.
.	16cc\	.
.	16b\	.
.	16a\JJ	.
.	16g#X\LL	.
.	16a\	.
.	16b\	.
.	16cc\JJ	.
=23	=23	=23
8r	8dd\L	.
8BL 8E\	8dd 8g#X\	.
8B 8E\	8dd 8g#\	.
8BJ 8E\	8ddJ 8g#\	.
=24	=24	=24
!	!LO:SIC:v:n=2:s=4g#	!
4B 4E\	4dd 4g\	.
8c 8A\	8ccL 8a\	.
8r	16ee\L	.
.	16dd\JJ	.
=25	=25	=25
*2\right	*	*
2c 2G 2C\	16cc\LL	.
.	16b\	.
.	16a\	.
.	16g\JJ	.
.	16f#X/LL	.
.	16g/	.
.	16a/	.
.	16g/JJ	.
=26	=26	=26
4B 4G\	16g/LL	.
.	16a/	.
.	16b/	.
.	16cc/JJ	.
4r	16dd\LL	.
.	16ee\	.
!	!LO:TX:a:t=P:problem=# above	!
.	16ff#X\	.
.	16gg\JJ	.
*clefG2	*	*
=27	=27	=27
2cc 2a 2d/	16ff#X\LL	.
.	16gg\	.
.	16aa\	.
.	16bb\JJ	.
.	16ccc\LL	.
.	16aa\	.
.	16gg\	.
.	16ff#\JJ	.
=28	=28	=28
4b 4g/	16gg\LL	.
.	16aa\	.
.	16bb\	.
.	16aa\JJ	.
4r	16gg\LL	.
.	16ff#X\	.
.	16ee\	.
.	16dd\JJ	.
*clefF4	*	*
=29	=29	=29
4B 4G\	16cc\LL	.
.	16b\	.
.	16a\	.
.	16g\JJ	.
4r	16f#X/LL	.
.	16g/	.
.	16a/	.
.	16f#/JJ	.
*clefG2	*	*
=30	=30	=30
!LO:N:vis=2	!	!
4cc 4a 4d/	16ff#X\LL	.
.	16gg\	.
.	16aa\	.
.	16bb\JJ	.
4r	16ccc\LL	.
.	16aa\	.
.	16gg\	.
.	16ff#\JJ	.
=31	=31	=31
8b 8g/	16gg\LL	.
.	16aa\	.
8r	16bb\	.
.	16gg\JJ	.
8cc 8a 8d/	16ff#X\LL	.
.	16gg\	.
8r	16aa\	.
.	16gg\JJ	.
!!LO:LB:g=original
=32	=32	=32
8b 8g/	16gg\LL	.
.	16aa\	.
8r	16bb\	.
.	16gg\JJ	.
8cc 8a 8d/	16ff#X\LL	.
.	16gg\	.
8r	16aa\	.
.	16ff#\JJ	.
=33	=33	=33
8b 8g/	8gg\L	.
8r	16gg\L	.
.	16ff#X\JJ	.
4r	16gg\LL	.
.	16ff#\	.
.	16gg\	.
.	16ff#\JJ	.
=34	=34	=34
2r	16gg\LL	.
.	16ff#X\	.
.	16gg\	.
.	16ff#\JJ	.
.	16gg\LL	.
.	16ffn\	.
.	16ee\	.
.	16ff\JJ	.
=35	=35	=35
8g 8e 8c/|	8.gg\L	p
8ryy	.	.
.	16gg\Jk	.
4r	16ff#X\LL	.
.	16gg\	.
.	16aa\	.
.	16gg\JJ	.
=36	=36	=36
8g 8e 8c/|	8.ee\L	.
8ryy	.	.
.	16ee\Jk	.
4r	16dd#X\LL	.
.	16ee\	.
.	16ff\	.
.	16ee\JJ	.
=37	=37	=37
8r	8.cc\L	.
8b 8g 8c/|	.	.
.	16cc\Jk	.
4ryy	16dd\LL	.
.	16cc\	.
.	16b\	.
.	16cc\JJ	.
=38	=38	=38
4g 4f 4B/	4cc#X\	.
!LO:N:vis=4	!	!
8g 8f 8B/	8dd\L	.
8r	16dd\L	.
.	16ee\JJ	.
=39	=39	=39
8g 8d 8B/|	8.ff\L	.
8ryy	.	.
.	16ff\Jk	.
4r	16ee\LL	.
.	16ff\	.
.	16gg\	.
.	16ff\JJ	.
=40	=40	=40
8gL 8f 8B/	8.dd\L	.
8gJ 8f 8B/	.	.
.	16dd\Jk	.
4r	16cc#X\LL	.
.	16dd\	.
.	16ee\	.
.	16dd\JJ	.
=41	=41	=41
8r	8b\L	.
*clefF4	*	*
8fL 8d 8G\	8gg 8b\	.
8f 8d 8G\	8gg 8b\	.
8fJ 8d 8G\	8ggJ 8b\	.
=42	=42	=42
4f 4d 4G\	4gg 4b\	.
8e 8c\	8cc\L	.
8r	16ee\L	.
.	16ff\JJ	.
!!LO:LB:g=original
=43	=43	=43
16C\LL	8.gg\L	f
16G\	.	.
16E\	.	.
16G\JJ	16gg\Jk	.
*rep	*	*
16C\LL	16ff#X\LL	.
16G\	16gg\	.
16E\	16aa\	.
16G\JJ	16gg\JJ	.
*Xrep	*	*
=44	=44	=44
*rep	*	*
16C\LL	8.ee\L	.
16G\	.	.
16E\	.	.
16G\JJ	16ee\Jk	.
*Xrep	*	*
*rep	*	*
16C\LL	16dd#X\LL	.
16G\	16ee\	.
16E\	16ff\	.
16G\JJ	16ee\JJ	.
*Xrep	*	*
=45	=45	=45
*rep	*	*
16C\LL	8.cc\L	.
16G\	.	.
16E\	.	.
16G\JJ	16cc\Jk	.
*Xrep	*	*
*rep	*	*
16C\LL	16dd\LL	.
16G\	16cc\	.
16E\	16b\	.
16G\JJ	16cc\JJ	.
*Xrep	*	*
=46	=46	=46
16BB\LL	4cc#X\	.
16G\	.	.
16F\	.	.
16G\JJ	.	.
*rep	*	*
16BB\LL	8dd\L	.
16G\	.	.
16F\	16dd\L	.
16G\JJ	16ee\JJ	.
*Xrep	*	*
=47	=47	=47
16BB\LL	8.ff\L	.
16G\	.	.
16D\	.	.
16G\JJ	16ff\Jk	.
*rep	*	*
16BB\LL	16ee\LL	.
16G\	16ff\	.
16D\	16gg\	.
16G\JJ	16ff\JJ	.
*Xrep	*	*
=48	=48	=48
*rep	*	*
16BB\LL	8.dd\L	.
16G\	.	.
16F\	.	.
16G\JJ	16dd\Jk	.
*Xrep	*	*
*rep	*	*
16BB\LL	16cc#X\LL	.
16G\	16dd\	.
16F\	16ee\	.
16G\JJ	16dd\JJ	.
*Xrep	*	*
=49	=49	=49
8r	8b\L	.
8fL 8d 8G\	8gg 8b\	.
8f 8d 8G\	8gg 8b\	.
8fJ 8d 8G\	8ggJ 8b\	.
=50	=50	=50
16C\LL	4cc\	.
16E\	.	.
16G\	.	.
16c\JJ	.	.
8C/	8r	.
8r	16eee\LL	.
.	16ddd#X\JJ	.
=51	=51	=51
!LO:N:vis=2	!	!
8A\L	8eee\L	.
8e 8c\	16eee\L	.
.	16ddd\JJ	.
8e 8c\	8ccc\L	.
8eJ 8c\	16ccc\L	.
.	16bb\JJ	.
=52	=52	=52
*rep	*	*
!LO:N:vis=2	!	!
8A\L	4.aa\	.
8e 8c\	.	.
8e 8c\	.	.
8eJ 8c\	16gg#X\LL	.
.	16aa\JJ	.
*Xrep	*	*
=53	=53	=53
!LO:N:vis=2	!	!
8G#/L	8bb\L	.
8eJ 8d/	8bb\	.
*rep	*	*
!LO:N:vis=2	!	!
8G#/L	8bb\	.
8eJ 8d/	8bb\J	.
*Xrep	*	*
=54	=54	=54
!LO:N:vis=2	!	!
8A\L	16ccc\LL	.
.	16ddd\	.
8eJ 8c\	16ccc\	.
.	16ddd\JJ	.
!!LO:LB:g=original
8eL 8c\	8aa\L	.
8eJ 8c\	16eee\L	.
.	16ddd#X\JJ	.
=55	=55	=55
!LO:N:vis=2	!	!
8A\L	8eee\L	.
8eJ 8c\	16eee\L	.
.	16ddd\JJ	.
*rep	*	*
!LO:N:vis=2	!	!
8A\L	8ccc\L	.
8eJ 8c\	16ccc\L	.
.	16bb\JJ	.
*Xrep	*	*
=56	=56	=56
*rep	*	*
!LO:N:vis=2	!	!
8A\L	4aa\	.
8eJ 8c\	.	.
!LO:N:vis=2	!	!
8A\L	16aa\LL	.
.	16aa\	.
8eJ 8c\	16gg\	.
.	16aa\JJ	.
*Xrep	*	*
=57	=57	=57
8e 8B\	16gg#X\LL	.
.	16gg#\	.
8r	16aa\	.
.	16gg#\JJ	.
8d#X 8B\	16ff#X\LL	.
.	16ff#\	.
8r	16gg#\	.
.	16ff#\JJ	.
=58	=58	=58
16r	4ee\	.
16e\LL	.	.
16d#X\	.	.
16e\JJ	.	.
8E\	8r	.
8r	16e/LL	.
.	16f#X/JJ	.
=59	=59	=59
!LO:N:vis=2	!	!
8E\L	8g#X/L	.
8dJ 8B\	16g#/L	.
.	16a/JJ	.
*rep	*	*
!LO:N:vis=2	!	!
8E\L	8b\L	.
8dJ 8B\	16b\L	.
.	16cc\JJ	.
*Xrep	*	*
=60	=60	=60
*rep	*	*
!LO:N:vis=2	!	!
8E\L	16dd\LL	.
.	16cc\	.
8dJ 8B\	16b\	.
.	16a\JJ	.
!LO:N:vis=2	!	!
8E\L	8g#X/L	.
8dJ 8B\	8g#/J	.
*Xrep	*	*
=61	=61	=61
!LO:N:vis=2	!	!
8F\L	8a\L	.
8eJ 8c\	16a\L	.
.	16b\JJ	.
*rep	*	*
!LO:N:vis=2	!	!
8FL\	8cc\L	.
8eJ 8c\	16cc\L	.
.	16dd\JJ	.
*Xrep	*	*
=62	=62	=62
!LO:N:vis=2	!	!
8E\L	8ee\L	.
8BJ 8G#X\	8ee\	.
*rep	*	*
!LO:N:vis=2	!	!
8E\L	8ee\J	.
8BJ 8G#\	16ee\LL	.
.	16ff#X\JJ	.
*Xrep	*	*
=63	=63	=63
!LO:N:vis=2	!	!
8E\L	8gg#X\L	.
8dJ 8B\	16gg#\L	.
.	16aa\JJ	.
*rep	*	*
!LO:N:vis=2	!	!
8EL\	8bb\L	.
8dJ 8B\	16bb\L	.
.	16ccc\JJ	.
*Xrep	*	*
=64	=64	=64
*rep	*	*
!LO:N:vis=2	!	!
8E\L	16ddd\LL	.
.	16ccc\	.
8dJ 8B\	16bb\	.
.	16aa\JJ	.
!LO:N:vis=2	!	!
8EL\	8gg#X\L	.
8dJ 8B\	8gg#\J	.
*Xrep	*	*
!!LO:PB:g=original
=65	=65	=65
!LO:N:vis=2	!	!
8E/L	8aa\L	.
8c 8A/	16aa\L	.
.	16bb\JJ	.
8c 8A/	8ccc\L	.
8cJ 8A/	16ccc\L	.
.	16ddd\JJ	.
=66	=66	=66
4B 4G#X 4E\	8eee\L	.
.	16eee\L	.
.	16ddd#X\JJ	.
4r	16eee\LL	.
.	16ddd#\	.
.	16eee\	.
.	16ddd#\JJ	.
=67	=67	=67
!LO:N:vis=2	!	!
8A\L	8eee\L	.
8eJ 8c\	16eee\L	.
.	16dddn\JJ	.
*rep	*	*
!LO:N:vis=2	!	!
8AL\	8ccc\L	.
8eJ 8c\	16ccc\L	.
.	16bb\JJ	.
*Xrep	*	*
=68	=68	=68
*rep	*	*
!LO:N:vis=2	!	!
8AL\	4.aa\	.
8eJ 8c\	.	.
!LO:N:vis=2	!	!
8AL\	.	.
8eJ 8c\	16gg#X\LL	.
.	16aa\JJ	.
*Xrep	*	*
=69	=69	=69
!LO:N:vis=2	!	!
8G#XL/	8bb\L	.
8dJ 8c/	8bb\	.
*rep	*	*
!LO:N:vis=2	!	!
8G#XL/	8bb\	.
8dJ 8c/	8bb\J	.
*Xrep	*	*
=70	=70	=70
!LO:N:vis=2	!	!
8AL\	16ccc\LL	.
.	16ddd\	.
8eJ 8c\	16ccc\	.
.	16bb\JJ|	.
*rep	*	*
!LO:N:vis=2	!	!
8AL\	8aa\L	.
8eJ 8c\	16eee\L	.
.	16ddd#X\JJ	.
*Xrep	*	*
=71	=71	=71
2A\	16eee\LL	f
.	16eee\	.
.	16aaa\	.
.	16ggg\JJ	.
.	16fff\LL	.
.	16eee\	.
.	16ddd\	.
.	16ccc\JJ	.
=72	=72	=72
8e\	16a\LL	.
.	16b\	.
8r	16cc\	.
.	16a\JJ	.
8E\	16g#X\LL	.
.	16a\	.
8r	16b\	.
.	16g#\JJ	.
=73	=73	=73
16r	4a\	.
16A\LL	.	.
16G#X\	.	.
16A\JJ	.	.
8AA/	8r	.
8r	16ee\LL	.
.	16dd\JJ	.
=74	=74	=74
8r	4cc\	.
8eL 8c 8A\	.	.
8eJ 8c 8A\	8r	.
8r	16cc\LL	.
.	16b\JJ	.
!!LO:LB:g=original
=75	=75	=75
8r	4a/	.
8eL 8c 8F\	.	.
8eJ 8c 8A\	8r	.
8r	16aa\LL	.
.	16gg\JJ	.
=76	=76	=76
8r	4ff\	.
8gL 8d 8B\	.	.
8gJ 8d 8B\	8r	.
8r	16ff\LL	.
.	16ee\JJ	.
=77	=77	=77
8r	4dd\	.
8gL 8f 8B\	.	.
8gJ 8f 8B\	8r	.
8r	16fff\LL	.
.	16eee\JJ	.
=78	=78	=78
2r	16ddd\LL	.
.	16ccc#X\	.
.	16ddd\	.
.	16eee\JJ	.
.	16aan\LL	.
!	!LO:TX:a:t=g	!
.	16gg 16ff#\	.
!	!LO:TX:a:t=h	!
.	16aa\	.
!	!LO:TX:a:t=a	!
.	16aa\JJ	.
=79	=79	=79
!LO:N:vis=2	!	!
4r	16ffnL\	.
.	16ee\	.
.	16dd\	.
.	16ccJ\	.
2r	16gg\LL	.
.	16ff#X\	.
.	16aa\	.
.	16gg\JJ	.
.	16ffn\LL	.
.	16ee\	.
.	16dd\	.
.	16cc\JJ	.
=80	=80	=80
2r	16b\LL	.
.	16cc\	.
.	16cc#X\	.
.	16dd\JJ	.
.	16dd#X\LL	.
.	16ee\	.
.	16ff\	.
!	!LO:TX:b:i:t=da comencement / drugi raz aż dotąd	!
.	16ff#X\JJ	.
*clefG2	*	*
!!LO:LB:g=original
=81	=81	=81
!LO:CL:ed	!	!
*clefF4	*	*
8r	8b\L	.
8dL 8G\	8gg 8b\	.
8f 8d 8G\	8gg 8b\	.
8fJ 8d 8G\	8ggJ 8b\	.
=82	=82	=82
8E 8C\	8cc\L	.
8r	16cc\L	.
.	16b\JJ	.
4r	16a/LL	.
.	16g/	.
.	16f/	.
.	16e/JJ	.
=83	=83	=83
4r	16d/LL	.
.	16c/	.
.	16B/	.
.	16A/JJ	.
4D 4GG\	16G/LL	.
.	16A/	.
.	16B/	.
.	16G/JJ	.
=84	=84	=84
!	!LO:TX:t=P:problem=mixed beam	!
8E 8C\	8c/L	.
8r	16ee 16cc\L	.
.	16dd 16cc\JJ	.
4r	16cc/LL	.
.	16b/	.
.	16a/	.
.	16g/JJ	.
=85	=85	=85
4r	16f/LL	.
.	16e/	.
.	16d/	.
.	16c/JJ	.
4D 4GG\	16B/LL	.
.	16c/	.
.	16d/	.
.	16B/JJ	.
=86	=86	=86
!	!LO:TX:t=P:problem=mixed beam	!
8E 8C\	8c/L	.
8r	16gg\L	.
.	16ff\JJ	.
4r	16ee\LL	.
.	16dd\	.
.	16cc\	.
.	16b\JJ	.
=87	=87	=87
2r	16a/LL	.
.	16g/	.
.	16f/	.
.	16e/JJ	.
.	16d/LL	.
.	16c/	.
.	16B/	.
.	16A/JJ	.
=88	=88	=88
!LO:N:vis=4	!	!
8r	8G/	.
16G\LL	8r	.
16F#X\	.	.
16G\	8e 8c/	.
16F#\JJ	.	.
16G\LL	8r	.
16Fn\	.	.
16E\	8ryy	.
16D\JJ	.	.
=89	=89	=89
!	!LO:N:vis=8.	!
16G\LL	8c/	.
16F#X\	.	.
16G\	8r	.
16F#\JJ	.	.
16G\LL	8g 8B/	.
16Fn\	.	.
16E\	8r	.
16D\JJ	.	.
!!LO:LB:g=original
=90	=90	=90
!	!LO:TX:t=P:problem=mixed beam	!
8C\	8eL 8c/	.
8r	16ccc\L	.
.	16bb\JJ	.
4r	16aa\LL	.
.	16gg\	.
.	16ff\	.
.	16ee\JJ	.
=91	=91	=91
4r	16dd\LL	.
.	16cc\	.
.	16b\	.
.	16a\JJ	.
4d 4G\	16g\LL	.
.	16a\	.
.	16b\	.
.	16g\JJ	.
=92	=92	=92
8e 8c\	8cc\L	.
8r	16eee\L	.
.	16ddd\JJ	.
4r	16ccc\LL	.
.	16bb\	.
.	16aa\	.
.	16gg\JJ	.
=93	=93	=93
4r	16ff\LL	.
.	16ee\	.
.	16dd\	.
.	16cc\JJ	.
4d 4G\	16b\LL	.
.	16cc\	.
.	16dd\	.
.	16b\JJ	.
=94	=94	=94
8e 8c\	8cc\L	.
8r	16ggg\L	.
.	16fff\JJ	.
4r	16eee\LL	.
.	16ddd\	.
.	16ccc\	.
.	16bb\JJ	.
=95	=95	=95
2r	16aa\LL	.
.	16gg\	.
.	16ff\	.
.	16ee\JJ	.
.	16dd\LL	.
.	16cc\	.
.	16b\	.
.	16a\JJ	.
=96	=96	=96
4r	8g/	.
.	8r	.
*clefG2	*	*
16g/LL	8ee 8cc\	.
16f#X/	.	.
16g/	8r	.
16f#/JJ	.	.
=97	=97	=97
16g/LL	8dd 8cc\	.
16f#X/	.	.
16g/	8r	.
16f#/JJ	.	.
16g/LL	8gg 8b\	.
16fn/	.	.
16e/	8r	.
16d/JJ	.	.
=98	=98	=98
4c/	4ee 4cc\	.
4r	8r	.
.	16ee\LL	.
.	16ff\JJ	.
!!LO:LB:g=original
=99	=99	=99
2g 2f 2B/	8.gg\L	.
.	16gg\Jk	.
.	16ff#X\LL	.
.	16gg\	.
.	16aa\	.
.	16gg\JJ	.
=100	=100	=100
4g 4e 4c/	4ccc\	.
4r	8r	.
.	16ee\LL	.
.	16ff\JJ	.
=101	=101	=101
2g 2f 2B/	8.gg\L	.
.	16gg\Jk	.
.	16ff#X\LL	.
.	16gg\	.
.	16aa\	.
.	16gg\JJ	.
=102	=102	=102
4g 4e 4c/	16cc\LL	.
.	16dd\	.
.	16ee\	.
.	16ff\JJ	.
4r	8aa\L	.
.	16aa\L	.
.	16bb\JJ	.
=103	=103	=103
4g 4e 4c/	16ccc\LL	.
.	16ccc\	.
.	16ddd\	.
.	16eee\JJ	.
4r	16fff\LL	.
.	16ggg\	.
.	16aaa\	.
.	16bbb\JJ	.
=104	=104	=104
4g 4e 4c/	4cccc\	.
*clefF4	*	*
4c 4C\	4ccc 4gg 4ee 4cc\	.
=105	=105	=105
4C 4CC/	4ccc 4gg 4ee 4cc\	.
4r	4r	.
==	==	==
*-	*-	*-
!!!system-decoration: {s1,s2}
!!!RDF**kern: | = vertical stroke
!!!ENC: Marta Lawrence
!!!END: 2020-12-13
!!!ENC: Marta Chmielewska
!!!END: 2020-06-18
!!!YEC: Copyright 2022 Narodowy Instytut Fryderyka Chopina (https://polishscores.org)
!!!YEM: License CC-BY-4.0 (https://creativecommons.org/licenses/by/4.0)
